X: 1
T: Harvest Storm
M: 4/4
L: 1/8
R: reel
K: Amaj
|e3f eAce|fAgA agfa|(3eee ef eAcA|GABc dfaf|
|e2 ef eAce|fd (3ddd agfa|(3eee ef eAcA|GABc defg|
|a2 gb aece|aA (3AAA eAce|(3aba gb aecA|GABc defg|
|a2 gb aece|aA (3AAA eAce|aAgA fAec|dcBc dfaf|
